common/resources/fonts/svg/kebab.svg

<?xml version="1.0" encoding="UTF-8" standalone="no"?>
<svg width="1024px" height="1024px" viewBox="0 0 1024 1024" version="1.1" xmlns="http://www.w3.org/2000/svg" xmlns:xlink="http://www.w3.org/1999/xlink">
    <!-- Generator: Sketch 40.3 (33839) - http://www.bohemiancoding.com/sketch -->
    <title>kebab</title>
    <desc>Created with Sketch.</desc>
    <defs></defs>
    <g id="Page-1" stroke="none" stroke-width="1" fill="none" fill-rule="evenodd">
        <g id="kebab" fill="#000000">
            <path d="M512,52 C575.729167,52 627,103.270833 627,167 C627,230.729167 575.729167,282 512,282 C448.270833,282 397,230.729167 397,167 C397,103.270833 448.270833,52 512,52 L512,52 Z M627,512 C627,575.729167 575.729167,627 512,627 C448.270833,627 397,575.729167 397,512 C397,448.270833 448.270833,397 512,397 C575.729167,397 627,448.270833 627,512 Z M512,742 C575.729167,742 627,793.270833 627,857 C627,920.729167 575.729167,972 512,972 C448.270833,972 397,920.729167 397,857 C397,793.270833 448.270833,742 512,742 L512,742 Z" id="Shape"></path>
        </g>
    </g>
</svg>

<svg width="1024" height="1024" viewBox="0 0 1024 1024">
    <path d="M512 52c63.73 0 115 51.27 115 115s-51.27 115-115 115-115-51.27-115-115S448.27 52 512 52zm115 460c0 63.73-51.27 115-115 115s-115-51.27-115-115 51.27-115 115-115 115 51.27 115 115zM512 742c63.73 0 115 51.27 115 115s-51.27 115-115 115-115-51.27-115-115 51.27-115 115-115z" fill-rule="evenodd"/>
</svg>
